src/assets/img/providers/igt-g.svg

<svg width="76" height="28" viewBox="0 0 76 28" fill="none" xmlns="http://www.w3.org/2000/svg">
<path d="M14.4074 28C22.1394 28 28.4074 21.732 28.4074 14C28.4074 6.26801 22.1394 0 14.4074 0C6.67542 0 0.40741 6.26801 0.40741 14C0.40741 18.3136 2.35831 22.1716 5.42593 24.7398C5.35036 24.6667 5.27024 24.585 5.18557 24.4948C9.16434 24.4222 12.7335 23.2789 15.893 21.0648C16.1401 20.8919 16.3882 20.6958 16.6371 20.4763C17.0069 20.1496 16.9585 20.0675 16.4919 20.23C16.1099 20.3631 15.7072 20.4719 15.2837 20.5566C12.4906 21.1253 9.94298 21.6887 7.64076 22.247C7.6061 22.2551 7.56963 22.2504 7.53782 22.2337C7.50602 22.2171 7.48094 22.1897 7.46705 22.1563L7.44113 22.0889C7.4374 22.0806 7.43546 22.0716 7.43543 22.0625C7.4354 22.0534 7.43728 22.0444 7.44094 22.0361C7.44461 22.0278 7.44998 22.0204 7.45671 22.0143C7.46345 22.0082 7.47138 22.0035 7.48002 22.0007C10.8383 20.8686 14.1041 19.7253 17.2774 18.5707C17.414 18.5206 17.414 18.4696 17.2774 18.4177L8.78409 15.1952L7.6589 14.7907C7.60187 14.77 7.56989 14.7294 7.56298 14.6689C7.56125 14.6481 7.55779 14.6248 7.55261 14.5989C7.54742 14.5677 7.56039 14.5531 7.5915 14.5548L7.87668 14.56L10.573 15.2548L17.8374 17.0152C17.9584 17.0445 17.9852 17.0056 17.9178 16.8985L14.1715 11.0185C14.1283 10.9787 14.0972 10.939 14.0782 10.8992C14.035 10.8145 14.0609 10.7765 14.1559 10.7852C14.2596 10.7955 14.3608 10.8517 14.4593 10.9537L19.2945 16.0403C19.355 16.1043 19.3878 16.0922 19.393 16.004L20.0956 6.01997L20.1708 4.3996C20.1742 4.29762 20.2269 4.24577 20.3289 4.24404H20.43C20.445 4.2437 20.4599 4.24631 20.4739 4.25173C20.4878 4.25714 20.5006 4.26526 20.5114 4.27561C20.5223 4.28597 20.531 4.29835 20.537 4.31206C20.5431 4.32578 20.5463 4.34054 20.5467 4.35553L20.5674 5.16701L21.0108 15.1277C21.0194 15.3144 21.0704 15.3265 21.1637 15.164C23.2032 11.626 23.9654 7.75873 23.4504 3.56219C23.4227 3.53627 23.4582 3.50516 23.5567 3.46886L24.2541 4.12997C24.522 7.48651 24.0017 10.6815 22.6933 13.7148L21.9856 15.0215C21.811 15.3464 21.8542 15.3784 22.1152 15.1174C23.4374 13.7882 24.8296 12.3649 26.2919 10.8474C26.304 10.8353 26.3161 10.8353 26.3282 10.8474L26.3878 10.8915C26.4345 10.9312 26.4414 10.9761 26.4085 11.0263L22.4756 16.9296C22.3788 17.0765 22.4159 17.131 22.5871 17.0929L28.2363 15.8615L28.0989 16.6963L23.1574 18.4463C22.9206 18.5292 22.9198 18.6156 23.1548 18.7055L26.9478 20.147L26.4759 21.0103L22.5456 20.0329C22.3762 19.9914 22.3382 20.0442 22.4315 20.1911L24.5833 23.5615L24.0415 24.1215L21.0963 20.974C21.0839 20.961 21.0679 20.9517 21.0504 20.9475C21.0328 20.9433 21.0144 20.9443 20.9974 20.9503C20.9804 20.9564 20.9655 20.9672 20.9545 20.9816C20.9436 20.9959 20.937 21.0131 20.9356 21.0311L20.5493 26.5818L19.6263 26.994L19.393 21.0363C19.3919 21.0142 19.3844 20.993 19.3715 20.9751C19.3586 20.9572 19.3408 20.9435 19.3202 20.9355C19.2996 20.9275 19.2772 20.9257 19.2556 20.9303C19.234 20.9348 19.2142 20.9455 19.1985 20.9611L14.1533 26.1255C14.1442 26.1345 14.1334 26.1416 14.1215 26.1464C14.1096 26.1511 14.0969 26.1535 14.0841 26.1532C14.0713 26.153 14.0587 26.1502 14.047 26.145C14.0352 26.1398 14.0247 26.1323 14.0159 26.1229L13.9641 26.0711C13.9451 26.0503 13.9433 26.0279 13.9589 26.0037L17.3474 20.9766C17.5946 20.6119 17.5462 20.567 17.2022 20.8418L16.0485 21.7648C14.9113 22.5443 13.6884 23.2045 12.38 23.7455C10.3941 24.5613 8.26384 25.0358 5.98927 25.1689C5.96643 25.1589 5.94254 25.1469 5.91762 25.133C8.27266 26.9317 11.2153 28 14.4074 28Z" fill="#00AB55"/>
<path d="M55.2122 20.6811L55.2174 17.0282C55.2174 16.947 55.1759 16.9063 55.093 16.9063H50.7711C50.6484 16.9063 50.587 16.8458 50.587 16.7249L50.5896 14.0545C50.5896 14.0222 50.6027 13.9912 50.6261 13.9683C50.6494 13.9455 50.6811 13.9326 50.7141 13.9326L58.3518 13.93C58.44 13.93 58.4841 13.975 58.4841 14.0649V22.4778C58.4841 22.5677 58.446 22.636 58.37 22.6826C54.0974 25.41 48.29 25.6797 44.2144 22.4234C42.8559 21.3379 41.8673 19.982 41.2485 18.3556C38.8815 12.1282 42.4956 5.6493 48.9874 4.44633C52.0726 3.87424 55.0739 4.46362 57.9915 6.21448C58.0762 6.26633 58.0943 6.33461 58.0459 6.4193L56.6252 8.89263C56.6165 8.9081 56.6048 8.92167 56.5908 8.93249C56.5768 8.94331 56.5608 8.95114 56.5438 8.95552C56.5267 8.95989 56.5091 8.96071 56.4919 8.95792C56.4747 8.95513 56.4583 8.94879 56.4437 8.9393C54.9141 7.98522 53.3214 7.45893 51.6656 7.36041C48.2848 7.16078 45.4044 8.91856 44.4633 12.2474C43.8696 14.3526 44.1107 16.7949 45.3215 18.6278C46.6281 20.6086 48.5043 21.6568 50.95 21.7726C52.4865 21.8452 53.8597 21.56 55.0696 20.9171C55.1647 20.8669 55.2122 20.7883 55.2122 20.6811Z" fill="#00AB55"/>
<path d="M34.793 4.57071H37.9715C38.0273 4.57071 38.0726 4.61598 38.0726 4.67182V24.3652C38.0726 24.421 38.0273 24.4663 37.9715 24.4663H34.793C34.7371 24.4663 34.6918 24.421 34.6918 24.3652V4.67182C34.6918 4.61598 34.7371 4.57071 34.793 4.57071Z" fill="#00AB55"/>
<path d="M75.5926 7.65071V4.5733L59.783 4.57071C59.6879 4.57071 59.6404 4.61824 59.6404 4.7133L59.63 7.54182C59.6297 7.556 59.6322 7.5701 59.6373 7.5833C59.6425 7.59649 59.6503 7.60852 59.6602 7.61867C59.6701 7.62881 59.682 7.63688 59.695 7.64238C59.7081 7.64788 59.7221 7.65072 59.7363 7.65071L65.8678 7.6533C65.8857 7.6533 65.9028 7.66013 65.9155 7.67229C65.9281 7.68444 65.9352 7.70093 65.9352 7.71812L65.9326 24.3211C65.9326 24.4196 65.9819 24.4689 66.0804 24.4689L69.1941 24.4663C69.2701 24.4663 69.3082 24.4282 69.3082 24.3522L69.3056 7.7233C69.3056 7.67664 69.328 7.6533 69.373 7.6533L75.5926 7.65071Z" fill="#00AB55"/>
</svg>

<svg xmlns="http://www.w3.org/2000/svg" width="76" height="28" fill="none"><path fill="#00AB55" d="M14.407 28c7.732 0 14-6.268 14-14s-6.268-14-14-14-14 6.268-14 14a13.97 13.97 0 0 0 5.019 10.74 7.155 7.155 0 0 1-.24-.245c3.978-.073 7.547-1.216 10.707-3.43.247-.173.495-.37.744-.589.37-.326.322-.409-.145-.246a9.08 9.08 0 0 1-1.208.327c-2.793.568-5.341 1.132-7.643 1.69a.149.149 0 0 1-.103-.013.154.154 0 0 1-.07-.078l-.027-.067A.065.065 0 0 1 7.48 22a436.065 436.065 0 0 0 9.797-3.43c.137-.05.137-.101 0-.153l-8.493-3.223-1.125-.404a.137.137 0 0 1-.096-.122.625.625 0 0 0-.01-.07c-.006-.031.007-.046.038-.044l.286.005 2.696.695 7.264 1.76c.121.03.148-.01.08-.117l-3.746-5.88a.403.403 0 0 1-.093-.119c-.043-.084-.017-.122.078-.114.104.01.205.067.303.169l4.835 5.086c.061.064.094.052.099-.036l.703-9.984.075-1.62c.003-.102.056-.154.158-.156h.101a.114.114 0 0 1 .117.112l.02.811.444 9.96c.008.187.06.2.153.037 2.04-3.538 2.801-7.405 2.286-11.602-.027-.026.008-.057.107-.093l.697.661c.268 3.357-.252 6.551-1.56 9.585l-.708 1.306c-.175.325-.132.357.13.096a377.039 377.039 0 0 0 4.176-4.27c.012-.012.024-.012.036 0l.06.045c.046.04.053.084.02.134l-3.932 5.904c-.097.146-.06.201.111.163l5.65-1.232-.138.835-4.942 1.75c-.236.083-.237.17-.002.26l3.793 1.441-.472.863-3.93-.977c-.17-.042-.208.011-.114.158l2.151 3.37-.541.56-2.946-3.147a.094.094 0 0 0-.099-.024.094.094 0 0 0-.061.081l-.387 5.55-.923.413-.233-5.958a.114.114 0 0 0-.195-.075l-5.045 5.165a.097.097 0 0 1-.106.019.095.095 0 0 1-.031-.022l-.052-.052c-.019-.02-.02-.043-.005-.067l3.388-5.027c.248-.365.2-.41-.145-.135l-1.154.923a19.95 19.95 0 0 1-3.668 1.98c-1.986.816-4.116 1.29-6.39 1.424a.837.837 0 0 1-.072-.036A13.938 13.938 0 0 0 14.408 28ZM55.212 20.681l.005-3.653c0-.081-.041-.122-.124-.122h-4.322c-.123 0-.184-.06-.184-.181l.003-2.67a.12.12 0 0 1 .036-.087.126.126 0 0 1 .088-.035l7.638-.003c.088 0 .132.045.132.135v8.413c0 .09-.038.158-.114.205-4.273 2.727-10.08 2.997-14.156-.26a9.39 9.39 0 0 1-2.965-4.067c-2.367-6.228 1.247-12.707 7.738-13.91 3.086-.572 6.087.018 9.005 1.768.084.052.102.12.054.205l-1.42 2.474a.132.132 0 0 1-.082.063.127.127 0 0 1-.1-.017c-1.53-.954-3.123-1.48-4.778-1.579-3.381-.2-6.262 1.559-7.203 4.887-.593 2.106-.352 4.548.858 6.38 1.307 1.982 3.183 3.03 5.629 3.146 1.536.072 2.91-.213 4.12-.856a.25.25 0 0 0 .142-.236ZM34.793 4.57h3.178c.056 0 .102.046.102.102v19.693a.101.101 0 0 1-.102.101h-3.178a.101.101 0 0 1-.101-.1V4.671c0-.056.045-.101.101-.101ZM75.593 7.65V4.574l-15.81-.002c-.095 0-.143.047-.143.142l-.01 2.829a.109.109 0 0 0 .03.077.107.107 0 0 0 .076.032l6.132.002c.018 0 .035.007.047.02.013.011.02.028.02.045l-.002 16.603c0 .099.049.148.147.148l3.114-.003c.076 0 .114-.038.114-.114l-.002-16.629c0-.046.022-.07.067-.07l6.22-.002Z"/></svg>
